icon_installer/data/icons/scalable/actions/show-gamepad-symbolic.svg

<?xml version="1.0" encoding="UTF-8"?>
<svg height="16px" viewBox="0 0 16 16" width="16px" xmlns="http://www.w3.org/2000/svg">
    <path d="m 4 2 c -1.597656 0 -2.644531 0.664062 -3 2 l -0.738281 8.324219 c -0.261719 1.59375 1.738281 2.175781 2.738281 1.175781 l 2.75 -4.5 h 4.5 l 2.75 4.5 c 1 1 3 0.527344 2.738281 -1.175781 l -0.738281 -8.324219 c -0.214844 -1.203125 -1.402344 -2.03125 -2.972656 -2.027344 z m 0.25 2 h 0.5 c 0.136719 0 0.25 0.113281 0.25 0.25 v 0.75 h 0.75 c 0.136719 0 0.25 0.113281 0.25 0.25 v 0.5 c 0 0.136719 -0.113281 0.25 -0.25 0.25 h -0.75 v 0.75 c 0 0.136719 -0.113281 0.25 -0.25 0.25 h -0.5 c -0.136719 0 -0.25 -0.113281 -0.25 -0.25 v -0.75 h -0.75 c -0.136719 0 -0.25 -0.113281 -0.25 -0.25 v -0.5 c 0 -0.136719 0.113281 -0.25 0.25 -0.25 h 0.75 v -0.75 c 0 -0.136719 0.113281 -0.25 0.25 -0.25 z m 5.765625 -0.113281 c 0.59375 0 1.078125 0.484375 1.078125 1.082031 s -0.484375 1.082031 -1.078125 1.082031 c -0.597656 0 -1.082031 -0.484375 -1.082031 -1.082031 s 0.484375 -1.082031 1.082031 -1.082031 z m 2.96875 2.019531 c 0.597656 0 1.082031 0.484375 1.082031 1.078125 c 0 0.597656 -0.484375 1.082031 -1.082031 1.082031 c -0.59375 0 -1.078125 -0.484375 -1.078125 -1.082031 c 0 -0.59375 0.484375 -1.078125 1.078125 -1.078125 z m 0 0" fill="#222222"/>
</svg>

<svg xmlns="http://www.w3.org/2000/svg" width="16" height="16"><path fill="#222" d="M4 2c-1.598 0-2.645.664-3 2l-.738 8.324C0 13.918 2 14.5 3 13.5L5.75 9h4.5L13 13.5c1 1 3 .527 2.738-1.176L15 4c-.215-1.203-1.402-2.031-2.973-2.027zm.25 2h.5c.137 0 .25.113.25.25V5h.75c.137 0 .25.113.25.25v.5c0 .137-.113.25-.25.25H5v.75c0 .137-.113.25-.25.25h-.5A.252.252 0 0 1 4 6.75V6h-.75A.252.252 0 0 1 3 5.75v-.5c0-.137.113-.25.25-.25H4v-.75c0-.137.113-.25.25-.25zm5.766-.113a1.081 1.081 0 1 1-.006 2.162 1.081 1.081 0 0 1 .006-2.162zm2.968 2.02a1.081 1.081 0 1 1 0 2.16 1.081 1.081 0 0 1 0-2.16zm0 0"/></svg>
